Static/burger-icon.svg

<svg width="24" height="24" viewBox="0 0 24 24" fill="none" xmlns="http://www.w3.org/2000/svg">
<path d="M24 16.4834H15V18.0658H24V16.4834Z" fill="#5F737C"/>
<path d="M24 11.209H0V12.7914H24V11.209Z" fill="#5F737C"/>
<path d="M24 5.93408H0V7.5165H24V5.93408Z" fill="#5F737C"/>
</svg>

<svg xmlns="http://www.w3.org/2000/svg" width="24" height="24" fill="none"><path fill="#5F737C" d="M24 16.483h-9v1.583h9v-1.583ZM24 11.209H0v1.582h24V11.21ZM24 5.934H0v1.582h24V5.934Z"/></svg>
